X:98
T:98. Alberti Romance (2nds CW) — classical LH + sustained RH
T:Fast 1-5-3-5 Alberti bass under held chord — Romantic piano-style
C:Full 7-mode cycle
M:4/4
L:1/16
Q:1/4=96
%%score {V1 V2}
V:V1 clef=treble
V:V2 clef=bass
K:C
[V:V1] "C" [cegc']16 | "Dm" [dfad']16 | "Em" [egbe']16 | "F" [fac'f']16 | "G" [gbd'g']16 | "Am" [ac'e'a']16 | "B°" [Bdfb]16 | "C" [cegc']16 |]
[V:V2] "_8"C,G,E,G, C,G,E,G, C,G,E,G, C,G,E,G, | "_8"D,A,F,A, D,A,F,A, D,A,F,A, D,A,F,A, | "_8"E,B,G,B, E,B,G,B, E,B,G,B, E,B,G,B, | "_8"F,CA,C F,CA,C F,CA,C F,CA,C | "_8"G,DB,D G,DB,D G,DB,D G,DB,D | "_8"A,ECE A,ECE A,ECE A,ECE | "_8"B,FDF B,FDF B,FDF B,FDF | "_8"C,G,E,G, C,G,E,G, C,G,E,G, C,G,E,G, |]

